X: 77
T:June Ni Chormaic's
M:2/2
L:1/8
R:Reel
Z:Robert Greenway, 24/11/1998
K:EDor
~E2GA B~E3|c2BA B~E3|~D3F A~D3|ABBA AGFD|
EFGA Beed|edBA G3A|BAGB ADFA|GEED E4:|
|;efed (3Bcd ef|gfed ed (3Bcd|edef ~g3e|fedf e3f|
g2fg edBA|AGFA G3A|BAGB ADFA|GEED E4:|

